!!!COM: Schubert, Franz
!!!CNT: Deutscher
!!!TXO: Deutsch
!!!OTL: "Der Leiermann (Urspruengliche Fassung)"
!!!OPR: Winterreise
!!!LYR: Mu2ller, Wilhelm
!!!OPS: Opus 89
!!!ONM: No. 24a
!!!ODT: 1827/
!!NB: Vocal melody only encoded.
**kern	**silbe
*clefG2	*
*k[f#c#]	*
*M3/4	*
*MM[langsam]	*
=9	=9
{8b	{Dru2-
8f#	-ben
8b	hin-
8cc#	-term
8dd	Dor-
8b	-fe
=10	=10
8f#	steht
8b	ein
8a#	Lei-
8cc#	-er-
4f#}	-mann,}
=13	=13
{8b	{und
8f#	mit
8b	star-
8cc#	-ren
8dd	Fin-
8b	-gern
=14	=14
8f#	dreht
8b	er,
8a#	was
8cc#	er
4f#}	kann.}
=17	=17
{8b	{Baar-
8ff#	-fuss
8ee	auf
8dd	dem
8cc#	Ei-
8f#	-se
=18	=18
8.b	wankt
16dd	er
8cc#	hin
8f#	und
4cc#}	her,}
=21	=21
{8b	{und
8ff#	sein
8ee	klei-
8dd	-ner
8cc#	Tel-
8f#	-ler
=22	=22
8.b	bleibt
16dd	ihm
8cc#	im-
8f#	-mer
4cc#}	leer}
=25	=25
{8b	{und
8cc#	sein
8dd	klei-
8ee	-ner
8.ff#	Tel-
16ee	-ler
=26	=26
8.dd	bleibt
16cc#	ihm
8b	im-
8f#	-mer
4b}	leer.}
=31	=31
{8.f#	{Wun-
16f#	-der-
8f#	-lich-
8f#	-er
8b	Al-
8f#	-ter,
=32	=32
4r	.
8f#	soll
8f#	ich
8b	mit
16dd	dir
16cc#	|
=33	=33
2b}	gehn?}
4r	.
=34	=34
{8.f#	{Willst
16ff#	du
8ee	mein-
8gg	-en
8ff#	Lied-
8f#	-ern
=35	=35
8.f#	dei-
16ff#	-ne
8ee	Lei-
8gg	-er
[4ff#	drehn?
=36	=36
2ff#]}	|}
4r	.
*-	*-
